assets/set_amount.svg

<svg fill="none" height="18" viewBox="0 0 18 18" width="18" xmlns="http://www.w3.org/2000/svg" xmlns:xlink="http://www.w3.org/1999/xlink"><mask id="a" fill="#000" height="18" maskUnits="userSpaceOnUse" width="18" x="0" y="0"><path d="m0 0h18v18h-18z" fill="#fff"/><path clip-rule="evenodd" d="m6.89371 11.7614c-.17348 0-.33996-.069-.46288-.1917-.12261-.1229-.19162-.2894-.19162-.4628 0-.1737.069-.3402.19161-.4631l9.47008-9.46807c.1672-.15566.4036-.21308.6235-.15139.2201.06168.3921.23366.4538.45375.0618.22007.0044.45632-.1514.62356l-9.47006 9.46805c-.12292.1227-.2894.1917-.46303.1917zm-5.70167 5.0468c-.12277-.1229-.19176-.2895-.19176-.4632l-.00028-13.39406c0-.17379.069-.34043.19176-.46334.12292-.12277.28956-.19177.46319-.19177l6.69926-.00015v1.31022h-6.04419v12.0841h12.08408l-.0002-6.04421h1.3103v6.69921c0 .1737-.069.3403-.1918.4632-.1229.1228-.2896.1918-.4633.1918h-13.39387c-.17364 0-.34027-.069-.46319-.1918z" fill="#000" fill-rule="evenodd"/></mask><g fill="#fff"><path clip-rule="evenodd" d="m6.89371 11.7614c-.17348 0-.33996-.069-.46288-.1917-.12261-.1229-.19162-.2894-.19162-.4628 0-.1737.069-.3402.19161-.4631l9.47008-9.46807c.1672-.15566.4036-.21308.6235-.15139.2201.06168.3921.23366.4538.45375.0618.22007.0044.45632-.1514.62356l-9.47006 9.46805c-.12292.1227-.2894.1917-.46303.1917zm-5.70167 5.0468c-.12277-.1229-.19176-.2895-.19176-.4632l-.00028-13.39406c0-.17379.069-.34043.19176-.46334.12292-.12277.28956-.19177.46319-.19177l6.69926-.00015v1.31022h-6.04419v12.0841h12.08408l-.0002-6.04421h1.3103v6.69921c0 .1737-.069.3403-.1918.4632-.1229.1228-.2896.1918-.4633.1918h-13.39387c-.17364 0-.34027-.069-.46319-.1918z" fill-rule="evenodd"/><path d="m6.43083 11.5697-.14159.1413.00034.0003zm-.00001-.9259-.1414-.1414-.00019.0002zm9.47008-9.46807-.1364-.14648-.005.00505zm.6235-.15139-.054.19257.0001.00001zm.4538.45375-.1926.05397v.00013zm-.1514.62356.1415.14153.0048-.00519zm-9.47006 9.46805.14125.1416.00016-.0001zm-6.35646 4.7753h.2zm.19176.4632-.14151.1414.00018.0001zm-.19204-13.85726h-.2v.00001zm.19176-.46334-.14133-.14151-.00018.00017zm.46319-.19177v.2h.00001zm6.69926-.00015h.2v-.2h-.20001zm0 1.31022v.2h.2v-.2zm-6.04419 0v-.2h-.2v.2zm0 12.0841h-.2v.2h.2zm12.08408 0v.2h.2v-.2zm-.0002-6.04421v-.2h-.2v.20001zm1.3103 0h.2v-.2h-.2zm-.1918 7.16241.1413.1415.0002-.0001zm-9.22282-5.0969c.16031.1599.37754.2501.60413.2501v-.4c-.12038 0-.23611-.0479-.32163-.1333zm-.25037-.6044c0 .2265.09011.4438.25003.6041l.28318-.2825c-.08531-.0855-.13321-.2013-.13321-.3216zm.25002-.6043c-.15993.1603-.25002.3775-.25002.6043h.4c0-.1206.04791-.2363.13321-.3218zm9.47027-9.4683-9.47008 9.4681.28281.2829 9.47007-9.46813zm.8189-.202534c-.2871-.080528-.5956-.005567-.8138.197574l.2725.29279c.1163-.10819.2806-.14807.4333-.10522zm.5924.592344c-.0806-.28731-.3051-.511826-.5924-.592354l-.1079.385164c.1528.04284.2723.16228.3151.31514zm-.1977.81388c.2034-.21827.2784-.52668.1976-.81401l-.3851.10821c.043.15282.0031.31691-.1051.43313zm-9.47495 9.47321 9.47005-9.46811-.2828-.28287-9.47007 9.46808zm-.60444.2502c.22671 0 .44396-.0901.60428-.2501l-.2825-.2831c-.08551.0852-.20122.1332-.32178.1332zm-6.093433 4.3836c0 .2267.090063.4442.250253.6046l.28302-.2827c-.08534-.0854-.13327-.2013-.13327-.3219zm-.000277-13.39405.000277 13.39415.400003-.0001-.00028-13.39406zm.25025-.60469c-.160199.16041-.25025.37787-.25025.60468h.4c0-.12078.04795-.23658.13327-.32201zm.6047-.25043c-.22668 0-.44413.09007-.60452.25026l.28267.28302c.08545-.08535.20126-.13328.32185-.13328zm6.69925-.00015-6.69925.00015.00001.4 6.69925-.00015zm.20001 1.51022v-1.31022h-.4v1.31022zm-6.24419.2h6.04419v-.4h-6.04419zm.2 11.8841v-12.0841h-.4v12.0841zm11.88408-.2h-12.08408v.4h12.08408zm-.2002-5.8442.0002 6.0442h.4l-.0002-6.04421zm1.5103-.20001h-1.3103v.4h1.3103zm.2 6.89921v-6.69921h-.4v6.69921zm-.2503.6046c.1602-.1604.2503-.3779.2503-.6046h-.4c0 .1206-.048.2365-.1333.3219zm-.6048.2504c.2268 0 .4442-.09.6046-.2503l-.2826-.283c-.0855.0854-.2013.1333-.322.1333zm-13.39387 0h13.39387v-.4h-13.39387zm-.60452-.2503c.16038.1602.37783.2503.60452.2503v-.4c-.1206 0-.23641-.0479-.32186-.1333z" mask="url(#a)"/></g></svg>

<svg width="18" height="18" viewBox="0 0 18 18" fill="none" xmlns="http://www.w3.org/2000/svg">
<mask id="path-1-outside-1_16873_17729" maskUnits="userSpaceOnUse" x="0" y="0" width="18" height="18" fill="black">
<rect fill="white" width="18" height="18"/>
<path fill-rule="evenodd" clip-rule="evenodd" d="M6.89371 11.7614C6.72023 11.7614 6.55375 11.6924 6.43083 11.5697C6.30822 11.4468 6.23921 11.2803 6.23921 11.1069C6.23921 10.9332 6.30821 10.7667 6.43082 10.6438L15.9009 1.17573C16.0681 1.02007 16.3045 0.96265 16.5244 1.02434C16.7445 1.08602 16.9165 1.258 16.9782 1.47809C17.04 1.69816 16.9826 1.93441 16.8268 2.10165L7.35674 11.5697C7.23382 11.6924 7.06734 11.7614 6.89371 11.7614ZM1.19204 16.8082C1.06927 16.6853 1.00028 16.5187 1.00028 16.345L1 2.95094C1 2.77715 1.069 2.61051 1.19176 2.4876C1.31468 2.36483 1.48132 2.29583 1.65495 2.29583L8.35421 2.29568V3.6059H2.31002V15.69H14.3941L14.3939 9.64579H15.7042V16.345C15.7042 16.5187 15.6352 16.6853 15.5124 16.8082C15.3895 16.931 15.2228 17 15.0491 17H1.65523C1.48159 17 1.31496 16.931 1.19204 16.8082Z"/>
</mask>
<path fill-rule="evenodd" clip-rule="evenodd" d="M6.89371 11.7614C6.72023 11.7614 6.55375 11.6924 6.43083 11.5697C6.30822 11.4468 6.23921 11.2803 6.23921 11.1069C6.23921 10.9332 6.30821 10.7667 6.43082 10.6438L15.9009 1.17573C16.0681 1.02007 16.3045 0.96265 16.5244 1.02434C16.7445 1.08602 16.9165 1.258 16.9782 1.47809C17.04 1.69816 16.9826 1.93441 16.8268 2.10165L7.35674 11.5697C7.23382 11.6924 7.06734 11.7614 6.89371 11.7614ZM1.19204 16.8082C1.06927 16.6853 1.00028 16.5187 1.00028 16.345L1 2.95094C1 2.77715 1.069 2.61051 1.19176 2.4876C1.31468 2.36483 1.48132 2.29583 1.65495 2.29583L8.35421 2.29568V3.6059H2.31002V15.69H14.3941L14.3939 9.64579H15.7042V16.345C15.7042 16.5187 15.6352 16.6853 15.5124 16.8082C15.3895 16.931 15.2228 17 15.0491 17H1.65523C1.48159 17 1.31496 16.931 1.19204 16.8082Z" fill="white"/>
<path d="M6.43083 11.5697L6.28924 11.711L6.28958 11.7113L6.43083 11.5697ZM6.43082 10.6438L6.28942 10.5024L6.28923 10.5026L6.43082 10.6438ZM15.9009 1.17573L15.7645 1.02925L15.7595 1.0343L15.9009 1.17573ZM16.5244 1.02434L16.4704 1.21691L16.4705 1.21692L16.5244 1.02434ZM16.9782 1.47809L16.7856 1.53206L16.7856 1.53219L16.9782 1.47809ZM16.8268 2.10165L16.9683 2.24318L16.9731 2.23799L16.8268 2.10165ZM7.35674 11.5697L7.49799 11.7113L7.49815 11.7112L7.35674 11.5697ZM1.00028 16.345H1.20028V16.345L1.00028 16.345ZM1.19204 16.8082L1.05053 16.9496L1.05071 16.9497L1.19204 16.8082ZM1 2.95094H0.8V2.95095L1 2.95094ZM1.19176 2.4876L1.05043 2.34609L1.05025 2.34626L1.19176 2.4876ZM1.65495 2.29583V2.49583H1.65496L1.65495 2.29583ZM8.35421 2.29568H8.55421V2.09568L8.3542 2.09568L8.35421 2.29568ZM8.35421 3.6059V3.8059H8.55421V3.6059H8.35421ZM2.31002 3.6059V3.4059H2.11002V3.6059H2.31002ZM2.31002 15.69H2.11002V15.89H2.31002V15.69ZM14.3941 15.69V15.89H14.5941L14.5941 15.69L14.3941 15.69ZM14.3939 9.64579V9.44579H14.1939L14.1939 9.6458L14.3939 9.64579ZM15.7042 9.64579H15.9042V9.44579H15.7042V9.64579ZM15.5124 16.8082L15.6537 16.9497L15.6539 16.9496L15.5124 16.8082ZM6.28958 11.7113C6.44989 11.8712 6.66712 11.9614 6.89371 11.9614V11.5614C6.77333 11.5614 6.6576 11.5135 6.57208 11.4281L6.28958 11.7113ZM6.03921 11.1069C6.03921 11.3334 6.12932 11.5507 6.28924 11.711L6.57242 11.4285C6.48711 11.343 6.43921 11.2272 6.43921 11.1069H6.03921ZM6.28923 10.5026C6.1293 10.6629 6.03921 10.8801 6.03921 11.1069H6.43921C6.43921 10.9863 6.48712 10.8706 6.57242 10.7851L6.28923 10.5026ZM15.7595 1.0343L6.28942 10.5024L6.57223 10.7853L16.0423 1.31717L15.7595 1.0343ZM16.5784 0.831766C16.2913 0.751238 15.9828 0.826199 15.7646 1.02934L16.0371 1.32213C16.1534 1.21394 16.3177 1.17406 16.4704 1.21691L16.5784 0.831766ZM17.1708 1.42411C17.0902 1.1368 16.8657 0.912284 16.5784 0.831756L16.4705 1.21692C16.6233 1.25976 16.7428 1.3792 16.7856 1.53206L17.1708 1.42411ZM16.9731 2.23799C17.1765 2.01972 17.2515 1.71131 17.1707 1.42398L16.7856 1.53219C16.8286 1.68501 16.7887 1.8491 16.6805 1.96532L16.9731 2.23799ZM7.49815 11.7112L16.9682 2.24309L16.6854 1.96022L7.21533 11.4283L7.49815 11.7112ZM6.89371 11.9614C7.12042 11.9614 7.33767 11.8713 7.49799 11.7113L7.21549 11.4282C7.12998 11.5134 7.01427 11.5614 6.89371 11.5614V11.9614ZM0.800277 16.345C0.800277 16.5717 0.89034 16.7892 1.05053 16.9496L1.33355 16.6669C1.24821 16.5815 1.20028 16.4656 1.20028 16.345H0.800277ZM0.8 2.95095L0.800277 16.3451L1.20028 16.345L1.2 2.95094L0.8 2.95095ZM1.05025 2.34626C0.890051 2.50667 0.8 2.72413 0.8 2.95094H1.2C1.2 2.83016 1.24795 2.71436 1.33327 2.62893L1.05025 2.34626ZM1.65495 2.09583C1.42827 2.09583 1.21082 2.1859 1.05043 2.34609L1.3331 2.62911C1.41855 2.54376 1.53436 2.49583 1.65495 2.49583V2.09583ZM8.3542 2.09568L1.65495 2.09583L1.65496 2.49583L8.35421 2.49568L8.3542 2.09568ZM8.55421 3.6059V2.29568H8.15421V3.6059H8.55421ZM2.31002 3.8059H8.35421V3.4059H2.31002V3.8059ZM2.51002 15.69V3.6059H2.11002V15.69H2.51002ZM14.3941 15.49H2.31002V15.89H14.3941V15.49ZM14.1939 9.6458L14.1941 15.69L14.5941 15.69L14.5939 9.64579L14.1939 9.6458ZM15.7042 9.44579H14.3939V9.84579H15.7042V9.44579ZM15.9042 16.345V9.64579H15.5042V16.345H15.9042ZM15.6539 16.9496C15.8141 16.7892 15.9042 16.5717 15.9042 16.345H15.5042C15.5042 16.4656 15.4562 16.5815 15.3709 16.6669L15.6539 16.9496ZM15.0491 17.2C15.2759 17.2 15.4933 17.11 15.6537 16.9497L15.3711 16.6667C15.2856 16.7521 15.1698 16.8 15.0491 16.8V17.2ZM1.65523 17.2H15.0491V16.8H1.65523V17.2ZM1.05071 16.9497C1.21109 17.1099 1.42854 17.2 1.65523 17.2V16.8C1.53463 16.8 1.41882 16.7521 1.33337 16.6667L1.05071 16.9497Z" fill="white" mask="url(#path-1-outside-1_16873_17729)"/>
</svg>
